Newaita-dark/actions/scalable/dialog-xml-editor.svg

<?xml version="1.0" encoding="UTF-8"?>
<svg xmlns="http://www.w3.org/2000/svg" xmlns:xlink="http://www.w3.org/1999/xlink" width="512pt" height="512pt" viewBox="0 0 512 512" version="1.1">
<g id="surface1">
<path style=" stroke:none;fill-rule:nonzero;fill:rgb(47.058824%,56.470591%,61.176473%);fill-opacity:0.984314;" d="M 314.292969 33.101562 C 325.585938 36.128906 332.285156 47.738281 329.261719 59.03125 L 219.683594 467.976562 C 216.65625 479.269531 205.050781 485.972656 193.757812 482.945312 C 182.464844 479.921875 175.761719 468.3125 178.789062 457.019531 L 288.367188 48.070312 C 291.390625 36.777344 303 30.078125 314.292969 33.101562 Z M 314.292969 33.101562 "/>
<path style=" stroke:none;fill-rule:evenodd;fill:rgb(74.117649%,74.117649%,74.117649%);fill-opacity:1;" d="M 158.460938 136.53125 C 154.433594 136.648438 150.609375 138.332031 147.804688 141.21875 L 41.960938 247.0625 C 35.90625 253.117188 35.90625 262.933594 41.960938 268.988281 L 147.804688 374.828125 C 151.703125 378.824219 157.449219 380.414062 162.847656 378.992188 C 168.25 377.566406 172.464844 373.351562 173.886719 367.953125 C 175.3125 362.554688 173.722656 356.808594 169.726562 352.90625 L 74.84375 258.023438 L 169.726562 163.140625 C 174.3125 158.683594 175.691406 151.871094 173.195312 145.984375 C 170.703125 140.09375 164.851562 136.339844 158.460938 136.53125 Z M 158.460938 136.53125 "/>
<path style=" stroke:none;fill-rule:evenodd;fill:rgb(74.117649%,74.117649%,74.117649%);fill-opacity:1;" d="M 350.34375 136.53125 C 354.371094 136.648438 358.191406 138.332031 361 141.21875 L 466.84375 247.0625 C 472.894531 253.117188 472.894531 262.933594 466.84375 268.988281 L 361 374.828125 C 357.101562 378.824219 351.351562 380.414062 345.953125 378.992188 C 340.554688 377.566406 336.339844 373.351562 334.914062 367.953125 C 333.492188 362.554688 335.082031 356.808594 339.074219 352.90625 L 433.957031 258.023438 L 339.074219 163.140625 C 334.492188 158.683594 333.113281 151.871094 335.605469 145.984375 C 338.097656 140.09375 343.953125 136.339844 350.34375 136.53125 Z M 350.34375 136.53125 "/>
</g>
</svg>

<svg xmlns="http://www.w3.org/2000/svg" width="512pt" height="512pt" viewBox="0 0 512 512"><path d="M314.293 33.102c11.293 3.027 17.992 14.636 14.969 25.93L219.684 467.976c-3.028 11.293-14.633 17.996-25.926 14.968-11.293-3.023-17.996-14.632-14.969-25.925L288.367 48.07c3.024-11.293 14.633-17.992 25.926-14.968zm0 0" fill="#78909c" fill-opacity=".984"/><path d="M158.46 136.531a15.49 15.49 0 0 0-10.655 4.688L41.96 247.063c-6.055 6.054-6.055 15.87 0 21.925l105.844 105.84a15.5 15.5 0 0 0 26.082-6.875 15.498 15.498 0 0 0-4.16-15.047l-94.883-94.883 94.883-94.882a15.49 15.49 0 0 0 3.468-17.157 15.495 15.495 0 0 0-14.734-9.453zm0 0M350.344 136.531c4.027.117 7.847 1.801 10.656 4.688l105.844 105.844c6.05 6.054 6.05 15.87 0 21.925L361 374.828a15.507 15.507 0 0 1-15.047 4.164 15.514 15.514 0 0 1-11.039-11.039 15.516 15.516 0 0 1 4.16-15.047l94.883-94.883-94.883-94.882a15.503 15.503 0 0 1 11.27-26.61zm0 0" fill-rule="evenodd" fill="#bdbdbd"/></svg>
